X: 2927
T: Barrel Of Monkeys, The
R: jig
M: 6/8
K: Gmajor
|:~G3 BGG|deg edB|~G3 BAG|A3 dBA|
~G3 BGG|deg ~e2d|ege edB|1 dBG AdB:|2 GBG AB/c/d||
|:~e2d g2e|dBA ~G3|~e2d ged|edB AB/c/d|
~e2d g2e|dBA GAB|cBA B/c/dA|GED E3:|

